svgs/motorola_camera.svg

<svg width="24" height="24" viewBox="0 0 24 24" fill="none" xmlns="http://www.w3.org/2000/svg">
<path d="M12 16.2C13.7673 16.2 15.2 14.7673 15.2 13C15.2 11.2327 13.7673 9.8 12 9.8C10.2327 9.8 8.8 11.2327 8.8 13C8.8 14.7673 10.2327 16.2 12 16.2Z" fill="black"/>
<path fill-rule="evenodd" clip-rule="evenodd" d="M4 5H6V6H20C21.1046 6 22 6.89543 22 8V18C22 19.1046 21.1046 20 20 20H4C2.89543 20 2 19.1046 2 18V8C2 6.89543 2.89543 6 4 6V5ZM19 10C19.5523 10 20 9.55229 20 9C20 8.44771 19.5523 8 19 8C18.4477 8 18 8.44771 18 9C18 9.55229 18.4477 10 19 10ZM7 13C7 15.76 9.24 18 12 18C14.76 18 17 15.76 17 13C17 10.24 14.76 8 12 8C9.24 8 7 10.24 7 13Z" fill="black"/>
</svg>

<svg xmlns="http://www.w3.org/2000/svg" width="24" height="24" fill="none" viewBox="0 0 24 24"><path fill="#000" d="M12 16.2a3.2 3.2 0 1 0 0-6.4 3.2 3.2 0 0 0 0 6.4"/><path fill="#000" fill-rule="evenodd" d="M4 5h2v1h14a2 2 0 0 1 2 2v10a2 2 0 0 1-2 2H4a2 2 0 0 1-2-2V8a2 2 0 0 1 2-2zm15 5a1 1 0 1 0 0-2 1 1 0 0 0 0 2M7 13c0 2.76 2.24 5 5 5s5-2.24 5-5-2.24-5-5-5-5 2.24-5 5" clip-rule="evenodd"/></svg>
